src/assets/Vector (45).svg

<svg width="69" height="78" viewBox="0 0 69 78" fill="none" xmlns="http://www.w3.org/2000/svg">
<path fill-rule="evenodd" clip-rule="evenodd" d="M48.0422 0.260172C45.826 0.739995 43.8249 1.56688 42.1562 2.69221L41.4702 3.15496L40.7798 2.48979C39.5451 1.29999 38.9068 1.18461 38.086 2.00265C37.2847 2.80119 37.35 3.40905 38.3505 4.46335L39.1353 5.29023L38.5682 5.91577C36.7401 7.93231 35.4264 10.8341 34.8466 14.1354L34.5655 15.7358L20.2142 34.0264C12.3209 44.0862 5.73562 52.5228 5.58009 52.7742C4.99158 53.726 5.23047 54.2604 7.04201 56.046L8.35085 57.3361L5.0838 60.6186C2.81101 62.902 1.69976 64.133 1.43243 64.6631C0.252061 67.004 0.252367 69.4987 1.43319 71.8227C1.93452 72.8093 3.48714 74.3478 4.495 74.8569C6.75204 75.9967 9.44037 75.9899 11.6317 74.8386C12.177 74.5521 13.9537 72.9071 17.6077 69.3057C20.9391 66.0221 23.0273 64.0778 23.4193 63.8948C23.7764 63.7279 24.496 63.5832 25.1478 63.5474C26.1578 63.4918 26.3577 63.5317 27.242 63.9655C28.8665 64.7625 29.6645 66.0444 29.6694 67.864C29.674 69.5775 29.3967 70.0133 26.3271 73.1163C23.7111 75.7608 23.6487 75.8388 23.6487 76.4663C23.6487 77.3786 24.278 78 25.2018 78C25.8542 78 25.8892 77.9713 28.6982 75.1421C31.6782 72.1405 32.2649 71.3221 32.659 69.6168C32.8624 68.7367 32.8624 66.9912 32.659 66.1111C32.1902 64.0832 30.5911 62.1096 28.6497 61.1634C26.4776 60.1047 24.3251 60.0899 22.0429 61.1178C21.048 61.5661 20.6045 61.9637 15.7674 66.7455C9.98177 72.4651 9.8426 72.5701 8.0491 72.5672C5.60853 72.5634 3.73995 70.7376 3.70401 68.3212C3.67831 66.5925 3.91429 66.2361 7.41273 62.7217L10.5591 59.5608L12.0952 61.0643C13.8434 62.7754 14.2931 62.9834 15.1523 62.4782C15.438 62.3102 23.9422 55.678 34.0506 47.7401L52.4295 33.3074L53.5582 33.1678C56.2713 32.832 59.2831 31.593 61.5196 29.8923L62.8376 28.8901L63.7415 29.7816C64.5676 30.5963 64.7033 30.6731 65.3166 30.6731C66.1232 30.6731 66.7236 30.1971 66.8651 29.4454C66.9848 28.8092 66.78 28.4295 65.7474 27.3735L64.9056 26.5125L65.3973 25.8002C66.2091 24.6244 67.2271 22.3165 67.6331 20.7317C69.9136 11.8294 64.3904 2.64603 55.4038 0.398114C53.5348 -0.0693629 49.8811 -0.1378 48.0422 0.260172ZM49.6196 3.16334C48.1075 3.40112 46.8571 3.77745 45.5952 4.37449C43.4771 5.37666 43.4758 5.13857 45.6117 7.30418C46.7107 8.41853 47.5044 9.3515 47.5642 9.59965C47.8097 10.6174 46.7243 11.7258 45.7267 11.4763C45.4591 11.4093 44.5321 10.6212 43.3271 9.4361L41.3636 7.50507L40.8258 8.11476C39.5231 9.59202 38.4175 12.0277 38.0023 14.3357L37.8154 15.3743L45.2345 22.7684L52.6537 30.1627L53.6362 29.9915C55.7828 29.6176 57.8873 28.7227 59.5507 27.4765C60.0765 27.0828 60.5065 26.7167 60.5065 26.6632C60.5065 26.6097 58.8892 24.9489 56.9125 22.9726C53.6984 19.7591 53.3185 19.327 53.3185 18.8838C53.3185 18.1852 53.6837 17.5643 54.2263 17.3402C55.2139 16.9326 55.4578 17.1032 59.1301 20.7657C61.0213 22.652 62.6197 24.1952 62.6819 24.1952C62.9285 24.1952 64.3391 20.9948 64.6303 19.775C65.0093 18.1875 65.0486 15.4237 64.7146 13.8417C63.6441 8.76925 59.666 4.65814 54.6798 3.47124C53.1856 3.11564 50.8336 2.97251 49.6196 3.16334ZM25.931 5.89291C25.5275 6.295 25.4839 6.43614 25.4839 7.34091V8.34339H24.6351C23.6245 8.34339 22.9739 8.64259 22.6572 9.25289C22.3659 9.81441 22.3659 10.0732 22.6572 10.6347C22.9739 11.245 23.6245 11.5442 24.6351 11.5442H25.4839V12.5467C25.4839 13.4515 25.5275 13.5926 25.931 13.9947C26.5605 14.6221 27.4662 14.6221 28.0956 13.9947C28.4991 13.5926 28.5427 13.4515 28.5427 12.5467V11.5442L29.4221 11.5436C30.8932 11.5427 31.7473 10.7669 31.5328 9.62678C31.3774 8.80157 30.8193 8.43713 29.6058 8.36884L28.5427 8.30894V7.32369C28.5427 6.43797 28.4976 6.29347 28.0956 5.89291C27.745 5.54356 27.5116 5.44738 27.0133 5.44738C26.515 5.44738 26.2817 5.54356 25.931 5.89291ZM9.41376 11.3801C9.08862 11.7041 8.96673 11.9722 8.96673 12.3634C8.96673 14.0194 8.19883 15.8357 6.98879 17.0416C5.89667 18.1301 4.76768 18.6593 2.9696 18.9256C1.30947 19.1716 0.861056 19.5144 0.861056 20.5371C0.861056 21.5588 1.31008 21.9028 2.96318 22.1477C4.69718 22.4046 5.95753 23.0051 7.05073 24.0955C8.20036 25.2421 8.96673 27.0882 8.96673 28.7109C8.96673 29.9331 10.5487 30.6044 11.5023 29.7868C11.8501 29.4888 11.9446 29.2276 12.1113 28.1038C12.6179 24.6885 14.6745 22.641 18.1056 22.1359C19.6749 21.9049 20.1311 21.5448 20.1311 20.5371C20.1311 19.5294 19.6749 19.1693 18.1056 18.9384C14.6745 18.4332 12.6179 16.3858 12.1113 12.9704C11.9446 11.8466 11.8501 11.5854 11.5023 11.2874C10.8905 10.7629 9.99309 10.8029 9.41376 11.3801ZM49.8774 12.9076C49.2843 13.1497 48.9598 13.6749 48.9598 14.3933C48.9598 14.9522 49.0375 15.1429 49.3876 15.443C49.9747 15.9463 50.4228 16.028 51.0847 15.7524C52.2307 15.2752 52.3423 13.705 51.2763 13.0572C50.7652 12.7465 50.3746 12.7049 49.8774 12.9076ZM9.84474 18.5629C9.52862 18.9766 8.93033 19.5729 8.51525 19.8879C8.10018 20.2031 7.76066 20.4952 7.76066 20.5371C7.76066 20.579 8.10018 20.8711 8.51525 21.1863C8.93033 21.5013 9.52862 22.0976 9.84474 22.5113C10.161 22.9249 10.454 23.2644 10.4961 23.2654C10.5382 23.2667 10.8335 22.9304 11.1524 22.5183C11.4712 22.1061 12.0704 21.5089 12.484 21.1911C12.8975 20.8733 13.236 20.579 13.236 20.5371C13.236 20.4952 12.8975 20.2009 12.484 19.8831C12.0704 19.5653 11.4712 18.9681 11.1524 18.5559C10.8335 18.1438 10.5382 17.8075 10.4961 17.8088C10.454 17.8098 10.161 18.1493 9.84474 18.5629ZM25.1355 32.8119C18.9295 40.7301 13.8188 47.2948 13.7783 47.4002C13.7376 47.5063 15.2278 49.1087 17.1157 50.9886L20.5268 54.3855L35.0109 43.0107C42.9772 36.7546 49.4951 31.5906 49.4951 31.5349C49.4951 31.4794 46.5529 28.5048 42.957 24.9246L36.4189 18.4152L25.1355 32.8119ZM34.5606 27.3935C33.3467 27.9981 31.4399 29.9411 30.8938 31.1299C30.5433 31.8931 30.5021 32.146 30.5633 33.1663C30.6494 34.6015 31.0001 35.3339 32.0535 36.2778C33.3224 37.4149 34.7788 37.72 36.5058 37.2111C37.2294 36.9977 37.5458 36.7569 38.9579 35.3439C40.7448 33.5559 41.0835 32.9296 41.0835 31.4137C41.0835 28.0943 37.5395 25.91 34.5606 27.3935ZM35.9601 30.1636C35.479 30.4262 34.0477 31.8495 33.8072 32.304C33.4874 32.9089 33.5385 33.2788 34.0154 33.8106C34.352 34.1861 34.5641 34.2855 35.0287 34.2855C35.5535 34.2855 35.7356 34.1674 36.7335 33.1796C37.3479 32.5712 37.8919 31.9102 37.9421 31.7104C38.065 31.2228 37.6424 30.3758 37.1691 30.1608C36.6964 29.9462 36.3569 29.947 35.9601 30.1636ZM56.5143 44.415C50.4387 46.5033 48.7341 47.1459 48.4627 47.4508L48.1186 47.8376V54.2038V60.57L46.6275 60.5613C45.4503 60.5543 44.9184 60.627 44.1016 60.9064C39.3289 62.5382 37.9803 67.4631 41.7938 69.3341C44.7702 70.7946 49.1945 69.255 50.7108 66.2311L51.1774 65.3004V57.4368L51.1775 49.5734L54.2744 48.5066C55.9778 47.9199 58.593 47.0193 60.086 46.5051L62.8006 45.5705V50.5442L62.8004 55.5178L61.233 55.5303C59.9245 55.5408 59.4946 55.6091 58.6315 55.9434C56.064 56.9375 54.5325 58.7036 54.4132 60.8078C54.3423 62.0604 54.7154 62.9479 55.6476 63.7431C56.5342 64.4994 57.568 64.8158 59.1301 64.8088C61.8542 64.7966 64.3574 63.381 65.51 61.2007L65.9358 60.3953L65.9802 51.7916C66.0309 41.9209 66.0634 42.1797 64.7389 41.8821C64.2989 41.7831 63.0708 42.1614 56.5143 44.415ZM10.285 51.7327L8.92696 53.4937L11.7239 56.2842L14.5206 59.0746L15.7382 58.1345C16.4077 57.6174 17.2056 56.9761 17.511 56.709L18.0665 56.2237L14.9327 53.089C13.2091 51.365 11.7638 49.9584 11.721 49.9631C11.6781 49.968 11.032 50.7643 10.285 51.7327ZM59.6282 58.8955C59.2714 59.0214 58.6658 59.4104 58.2825 59.7599C57.0372 60.8953 57.3657 61.6837 59.0861 61.6886C60.6264 61.693 62.482 60.6488 62.7376 59.6337C62.8246 59.2887 62.7764 59.1441 62.5009 58.9216C62.0691 58.5733 60.5801 58.5597 59.6282 58.8955ZM44.7753 64.0022C43.1509 64.6239 42.203 66.1114 43.1554 66.5438C43.7012 66.7918 45.0308 66.7641 45.8442 66.4879C47.0348 66.0835 48.259 64.8239 48.0327 64.2362C47.7949 63.6184 46.0964 63.4963 44.7753 64.0022Z" fill="white"/>
</svg>

<svg xmlns="http://www.w3.org/2000/svg" width="69" height="78" fill="none" viewBox="0 0 69 78"><path fill="#fff" fill-rule="evenodd" d="M48.042.26c-2.216.48-4.217 1.307-5.886 2.432l-.686.463-.69-.665c-1.235-1.19-1.873-1.305-2.694-.487-.801.798-.736 1.406.264 2.46l.785.827-.567.626c-1.828 2.016-3.142 4.918-3.721 8.22l-.282 1.6-14.35 18.29C12.32 44.086 5.734 52.523 5.58 52.774c-.588.952-.35 1.486 1.462 3.272l1.309 1.29-3.267 3.283C2.81 62.902 1.7 64.133 1.432 64.663c-1.18 2.341-1.18 4.836.001 7.16.502.986 2.054 2.525 3.062 3.034 2.257 1.14 4.945 1.133 7.137-.018.545-.287 2.322-1.932 5.976-5.533 3.331-3.284 5.42-5.228 5.811-5.411.357-.167 1.077-.312 1.729-.348 1.01-.055 1.21-.015 2.094.419 1.624.797 2.422 2.078 2.427 3.898.005 1.713-.272 2.15-3.342 5.252-2.616 2.645-2.678 2.723-2.678 3.35 0 .913.629 1.534 1.553 1.534.652 0 .687-.029 3.496-2.858 2.98-3.001 3.567-3.82 3.961-5.525.203-.88.203-2.626 0-3.506-.469-2.028-2.068-4.001-4.01-4.948-2.171-1.058-4.324-1.073-6.606-.045-.995.448-1.438.846-6.276 5.628-5.785 5.72-5.924 5.824-7.718 5.821-2.44-.004-4.309-1.83-4.345-4.246-.026-1.728.21-2.085 3.709-5.6l3.146-3.16 1.536 1.503c1.748 1.711 2.198 1.92 3.057 1.414.286-.168 8.79-6.8 18.899-14.738l18.378-14.433 1.13-.14c2.712-.335 5.724-1.574 7.96-3.275l1.319-1.002.904.892c.826.814.961.891 1.575.891.806 0 1.407-.476 1.548-1.228.12-.636-.085-1.015-1.118-2.072l-.841-.86.491-.713c.812-1.176 1.83-3.483 2.236-5.068 2.28-8.903-3.243-18.086-12.23-20.334-1.868-.467-5.522-.536-7.36-.138m1.578 2.903c-1.512.238-2.763.614-4.025 1.211-2.118 1.003-2.12.765.017 2.93C46.71 8.42 47.504 9.351 47.564 9.6c.246 1.017-.84 2.126-1.837 1.876-.268-.067-1.195-.855-2.4-2.04l-1.963-1.93-.538.609c-1.303 1.477-2.409 3.913-2.824 6.22l-.187 1.04 7.42 7.393 7.419 7.395.982-.172c2.147-.373 4.251-1.268 5.915-2.514.526-.394.956-.76.956-.814s-1.618-1.714-3.594-3.69c-3.215-3.214-3.594-3.646-3.594-4.09 0-.698.365-1.319.907-1.543.988-.407 1.232-.237 4.904 3.426 1.891 1.886 3.49 3.43 3.552 3.43.246 0 1.657-3.201 1.948-4.421.38-1.587.419-4.351.085-5.933-1.07-5.073-5.049-9.184-10.035-10.37-1.494-.356-3.846-.5-5.06-.309m-23.69 2.73c-.404.402-.447.543-.447 1.448v1.002h-.849c-1.01 0-1.661.3-1.978.91-.291.561-.291.82 0 1.382.317.61.968.91 1.978.91h.849v1.002c0 .904.043 1.046.447 1.448.63.627 1.535.627 2.165 0 .403-.402.447-.543.447-1.448v-1.003h.88c1.47-.001 2.324-.777 2.11-1.917-.156-.825-.714-1.19-1.927-1.258l-1.063-.06v-.985c0-.886-.045-1.03-.447-1.431-.351-.35-.584-.446-1.083-.446-.498 0-.731.097-1.082.446M9.414 11.38c-.325.324-.447.592-.447.983 0 1.656-.768 3.473-1.978 4.679-1.092 1.088-2.221 1.617-4.02 1.884-1.66.246-2.108.588-2.108 1.611 0 1.022.45 1.366 2.102 1.61 1.734.258 2.995.858 4.088 1.949 1.15 1.146 1.916 2.992 1.916 4.615 0 1.222 1.582 1.893 2.535 1.076.348-.298.443-.56.61-1.683.506-3.415 2.563-5.463 5.994-5.968 1.569-.231 2.025-.591 2.025-1.599s-.456-1.368-2.025-1.599c-3.432-.505-5.488-2.552-5.995-5.968-.166-1.123-.26-1.385-.609-1.683a1.53 1.53 0 0 0-2.088.093m40.463 1.528c-.593.242-.917.767-.917 1.485 0 .56.078.75.428 1.05.587.503 1.035.585 1.697.31 1.146-.478 1.257-2.048.191-2.696-.51-.31-.901-.352-1.399-.15M9.845 18.563a8.4 8.4 0 0 1-1.33 1.325c-.415.315-.754.607-.754.65 0 .041.34.333.754.648a8.4 8.4 0 0 1 1.33 1.325c.316.414.609.753.651.754s.338-.335.656-.747a9 9 0 0 1 1.332-1.327c.414-.318.752-.612.752-.654s-.338-.336-.752-.654a9 9 0 0 1-1.332-1.327c-.318-.412-.614-.748-.656-.747-.042 0-.335.34-.651.754m15.29 14.249C18.93 40.73 13.82 47.295 13.779 47.4c-.04.106 1.45 1.709 3.338 3.589l3.41 3.397L35.012 43.01c7.966-6.256 14.484-11.42 14.484-11.476s-2.942-3.03-6.538-6.61l-6.538-6.51zm9.426-5.418c-1.214.604-3.121 2.547-3.667 3.736-.35.763-.392 1.016-.33 2.036.085 1.436.436 2.168 1.49 3.112 1.268 1.137 2.725 1.442 4.452.933.723-.213 1.04-.454 2.452-1.867 1.787-1.788 2.126-2.414 2.126-3.93 0-3.32-3.545-5.504-6.523-4.02m1.4 2.77c-.482.262-1.913 1.685-2.154 2.14-.32.605-.269.975.208 1.507.337.375.55.474 1.014.474.524 0 .707-.118 1.704-1.105.615-.609 1.159-1.27 1.21-1.47.122-.487-.3-1.334-.774-1.55-.473-.214-.812-.213-1.209.004m20.553 14.251c-6.075 2.088-7.78 2.73-8.051 3.036l-.344.387V60.57l-1.492-.009c-1.177-.007-1.709.066-2.525.345-4.773 1.632-6.122 6.557-2.308 8.428 2.976 1.46 7.4-.079 8.917-3.103l.466-.93V49.572l3.097-1.066 5.812-2.002 2.715-.934v9.947l-1.568.012c-1.308.01-1.738.08-2.601.413-2.568.995-4.1 2.76-4.219 4.865-.07 1.252.302 2.14 1.235 2.935.886.756 1.92 1.073 3.482 1.066 2.724-.012 5.227-1.428 6.38-3.608l.426-.806.044-8.603c.05-9.871.083-9.612-1.241-9.91-.44-.099-1.668.28-8.225 2.533m-46.229 7.318-1.358 1.76 2.797 2.791 2.797 2.79 1.217-.94a51 51 0 0 0 1.773-1.425l.556-.485-3.134-3.135c-1.724-1.724-3.17-3.13-3.212-3.126s-.689.801-1.436 1.77m49.343 7.163c-.357.125-.962.514-1.346.864-1.245 1.135-.916 1.924.804 1.929 1.54.004 3.396-1.04 3.652-2.055.087-.345.038-.49-.237-.712-.432-.349-1.92-.362-2.873-.026m-14.853 5.106c-1.624.622-2.572 2.11-1.62 2.542.546.248 1.876.22 2.69-.056 1.19-.404 2.414-1.664 2.188-2.252-.238-.618-1.937-.74-3.258-.234" clip-rule="evenodd"/></svg>
